X: 12972
T: Fiddles On The Wall
R: reel
M: 4/4
K: Bminor
|:B3c BAFA|BABc dcBc|A~E3 ABcB|ABce afec|
B3F BABc|d3e dcBc|A~E3 ABce|1 afec B2 c/B/A:|2 afec B2de||
|:f~B3 aBg2|f2fg fecB|A2E2 ABcB|ABcd eBde|
f~B3 aBg2|f2fg fecd|e~A3 afec|1 ABc/B/A B2de:|2 ABc/B/A B4||

